X: 22894
T: Lark's March, The
R: jig
M: 6/8
K: Dmajor
|:AFE F2 E|D3 D2B|AFE F2E|DFA B2d|
AFE F2E|D3 D2f|gfe fdB|AFA B3:|
|:ABd fdB|D3 AFG|A2d fdB|AFA B2d|
ABd fdB|D3 Aef|gfe fdB|AFA B3:|
|:Add fdd|edd fdB|Add fdB|AFA B2d|
Add fdB|D3 Aef|gfe fdB|AFA B2d:|
|:DF/G/A dAF|DF/G/A BGE|DF/G/A dAF|D3 B2 A|
DF/G/A d2 A|D3 def|gfe fdB|AFA B3:|
|:d3 def|D3 DAF|ded def|D3 B2A|
d3 def|D3 def|gfe fdB|1 AFA B2 A:|2 AFA B3||

